packages/foundations/assets/icons/functional/images/transportation/electric_car_inverted.svg

<svg xmlns="http://www.w3.org/2000/svg" width="32" height="32" fill="none"><path fill="#1A1C1F" fill-rule="evenodd" d="M11.493 5.116c-2.314.093-2.414.102-2.793.234-.756.264-1.357.78-1.676 1.44-.14.289-.366 1.1-.922 3.303l-.736 2.92-1.31.002c-1.161.001-1.334.012-1.528.1-.435.197-.583.62-.543 1.548.018.43.05.614.134.777.238.462.479.56 1.376.56.369 0 .661.018.648.04-.085.149.369 5.308.516 5.854.039.146.119.376.178.509.093.21.113.411.147 1.52.042 1.364.065 1.489.327 1.749.314.311.385.327 1.549.345 1.229.02 1.42-.013 1.738-.3.334-.301.413-.525.414-1.175l.001-.55.334.032c.311.03 1.297.093 3.933.251.601.036 1.912.066 2.912.067h1.818l.061.296c.217 1.053 1.118 1.983 2.198 2.27.45.12 6.003.115 6.47-.006.962-.248 1.749-.977 2.104-1.948l.144-.394.015-4.28c.013-3.77.025-4.28.095-4.28.287 0 .778-.441.873-.785.073-.262.072-1.157-.001-1.421-.083-.298-.442-.665-.725-.741-.176-.047-.231-.088-.232-.171-.002-.246-.167-.867-.31-1.171-.43-.907-1.37-1.578-2.337-1.668l-.338-.032-.057-.208c-.067-.252-.386-.619-.622-.718-.267-.112-3.479-.103-3.718.01-.26.123-.509.409-.586.671l-.069.234-.332.037c-.65.073-1.28.376-1.732.834-.521.527-.794 1.064-.878 1.725l-.033.262-3.387.023c-1.862.012-4.297.046-5.41.076s-2.035.042-2.047.03.025-.21.084-.439c.059-.228.364-1.421.677-2.651s.602-2.298.642-2.373c.094-.18.329-.396.558-.511.622-.314 8.307-.397 12.883-.138.85.048.967.089 1.393.488.296.278.522.355.857.292.251-.047.52-.314.606-.604.104-.347.003-.602-.395-.999a2.92 2.92 0 0 0-1.554-.796c-1.143-.202-7.819-.284-11.414-.14m15.165 6.792c.268.177.522.514.597.79.035.133.049 2.152.04 5.899-.017 6.343.013 5.858-.387 6.301-.373.413-.339.409-3.415.409-2.646 0-2.726-.003-2.96-.112a1.58 1.58 0 0 1-.708-.681l-.118-.221v-5.76c0-6.49-.028-6.061.408-6.455.396-.357.255-.343 3.436-.33l2.884.012zm-3.069 2.97c-.144.088-.308.377-1 1.761-.902 1.803-.936 1.909-.709 2.241.191.28.423.373.933.373.242 0 .44.011.44.025s-.23.488-.511 1.053c-.443.892-.508 1.056-.485 1.231a.76.76 0 0 0 .762.678c.434 0 .498-.085 1.367-1.814.434-.865.814-1.663.844-1.773.045-.165.036-.243-.05-.437-.151-.342-.4-.456-.991-.456-.251 0-.456-.012-.456-.027s.228-.483.507-1.04c.532-1.062.572-1.207.421-1.524-.176-.37-.706-.514-1.072-.291M7.876 17.171c.772.089 1.408.189 1.494.234.601.311.609 1.184.013 1.488-.241.123-.428.119-1.827-.043-1.299-.15-1.541-.221-1.748-.51-.18-.253-.18-.694 0-.946.122-.171.474-.378.645-.379.044 0 .685.07 1.423.156m4.976.762c.312.16.423.326.513.766.041.202.087.422.102.488l.028.12h4.478v1.706h-2.699c-2.687 0-2.7 0-2.909-.118a1 1 0 0 1-.317-.291c-.115-.185-.367-1.513-.367-1.938-.001-.329.147-.584.426-.731.289-.153.449-.153.745-.002"/></svg>

<svg width="32" height="32" viewBox="0 0 32 32" fill="none" xmlns="http://www.w3.org/2000/svg"><path d="M11.493 5.116 C 9.179 5.209,9.079 5.218,8.700 5.350 C 7.944 5.614,7.343 6.130,7.024 6.790 C 6.884 7.079,6.658 7.890,6.102 10.093 L 5.366 13.013 4.056 13.015 C 2.895 13.016,2.722 13.027,2.528 13.115 C 2.093 13.312,1.945 13.735,1.985 14.663 C 2.003 15.093,2.035 15.277,2.119 15.440 C 2.357 15.902,2.598 16.000,3.495 16.000 C 3.864 16.000,4.156 16.018,4.143 16.040 C 4.058 16.189,4.512 21.348,4.659 21.894 C 4.698 22.040,4.778 22.270,4.837 22.403 C 4.930 22.613,4.950 22.814,4.984 23.923 C 5.026 25.287,5.049 25.412,5.311 25.672 C 5.625 25.983,5.696 25.999,6.860 26.017 C 8.089 26.037,8.280 26.004,8.598 25.717 C 8.932 25.416,9.011 25.192,9.012 24.542 L 9.013 23.992 9.347 24.024 C 9.658 24.054,10.644 24.117,13.280 24.275 C 13.881 24.311,15.192 24.341,16.192 24.342 L 18.010 24.342 18.071 24.638 C 18.288 25.691,19.189 26.621,20.269 26.908 C 20.719 27.028,26.272 27.023,26.739 26.902 C 27.701 26.654,28.488 25.925,28.843 24.954 L 28.987 24.560 29.002 20.280 C 29.015 16.510,29.027 16.000,29.097 16.000 C 29.384 16.000,29.875 15.559,29.970 15.215 C 30.043 14.953,30.042 14.058,29.969 13.794 C 29.886 13.496,29.527 13.129,29.244 13.053 C 29.068 13.006,29.013 12.965,29.012 12.882 C 29.010 12.636,28.845 12.015,28.702 11.711 C 28.272 10.804,27.332 10.133,26.365 10.043 L 26.027 10.011 25.970 9.803 C 25.903 9.551,25.584 9.184,25.348 9.085 C 25.081 8.973,21.869 8.982,21.630 9.095 C 21.370 9.218,21.121 9.504,21.044 9.766 L 20.975 10.000 20.643 10.037 C 19.993 10.110,19.363 10.413,18.911 10.871 C 18.390 11.398,18.117 11.935,18.033 12.596 L 18.000 12.858 14.613 12.881 C 12.751 12.893,10.316 12.927,9.203 12.957 C 8.089 12.986,7.168 12.999,7.156 12.987 C 7.143 12.974,7.181 12.777,7.240 12.548 C 7.299 12.320,7.604 11.127,7.917 9.897 C 8.231 8.667,8.519 7.599,8.559 7.524 C 8.653 7.344,8.888 7.128,9.117 7.013 C 9.739 6.699,17.424 6.616,22.000 6.875 C 22.850 6.923,22.967 6.964,23.393 7.363 C 23.689 7.641,23.915 7.718,24.250 7.655 C 24.501 7.608,24.770 7.341,24.856 7.051 C 24.960 6.704,24.859 6.449,24.461 6.052 C 24.050 5.642,23.503 5.361,22.907 5.256 C 21.764 5.054,15.088 4.972,11.493 5.116 M26.658 11.908 C 26.926 12.085,27.180 12.422,27.255 12.698 C 27.290 12.831,27.304 14.850,27.295 18.597 C 27.278 24.940,27.308 24.455,26.908 24.898 C 26.535 25.311,26.569 25.307,23.493 25.307 C 20.847 25.307,20.767 25.304,20.533 25.195 C 20.243 25.061,19.984 24.812,19.825 24.514 L 19.707 24.293 19.707 18.533 C 19.707 12.043,19.679 12.472,20.115 12.078 C 20.511 11.721,20.370 11.735,23.551 11.748 L 26.435 11.760 26.658 11.908 M23.589 14.878 C 23.445 14.966,23.281 15.255,22.589 16.639 C 21.687 18.442,21.653 18.548,21.880 18.880 C 22.071 19.160,22.303 19.253,22.813 19.253 C 23.055 19.253,23.253 19.264,23.253 19.278 C 23.253 19.292,23.023 19.766,22.742 20.331 C 22.299 21.223,22.234 21.387,22.257 21.562 C 22.309 21.958,22.625 22.239,23.019 22.240 C 23.453 22.240,23.517 22.155,24.386 20.426 C 24.820 19.561,25.200 18.763,25.230 18.653 C 25.275 18.488,25.266 18.410,25.180 18.216 C 25.029 17.874,24.780 17.760,24.189 17.760 C 23.938 17.760,23.733 17.748,23.733 17.733 C 23.733 17.718,23.961 17.250,24.240 16.693 C 24.772 15.631,24.812 15.486,24.661 15.169 C 24.485 14.799,23.955 14.655,23.589 14.878 M7.876 17.171 C 8.648 17.260,9.284 17.360,9.370 17.405 C 9.971 17.716,9.979 18.589,9.383 18.893 C 9.142 19.016,8.955 19.012,7.556 18.850 C 6.257 18.700,6.015 18.629,5.808 18.340 C 5.628 18.087,5.628 17.646,5.808 17.394 C 5.930 17.223,6.282 17.016,6.453 17.015 C 6.497 17.015,7.138 17.085,7.876 17.171 M12.852 17.933 C 13.164 18.093,13.275 18.259,13.365 18.699 C 13.406 18.901,13.452 19.121,13.467 19.187 L 13.495 19.307 15.734 19.307 L 17.973 19.307 17.973 20.160 L 17.973 21.013 15.274 21.013 C 12.587 21.013,12.574 21.013,12.365 20.895 C 12.249 20.830,12.107 20.700,12.048 20.604 C 11.933 20.419,11.681 19.091,11.681 18.666 C 11.680 18.337,11.828 18.082,12.107 17.935 C 12.396 17.782,12.556 17.782,12.852 17.933 " fill="#1A1C1F" stroke="none" fill-rule="evenodd"></path></svg>
